X:1
T:Title
%%score { ( 1 4 ) | ( 2 3 ) }
L:1/8
M:3/2
K:C
V:1 treble nm="Grand Piano"
V:4 treble 
V:2 bass 
V:3 bass 
V:1
 z4 z4[Q:1/4=108] E2 E2 | E4 E4 [DG]2 [DF]2 | F4 E4 E2 F2 | ^F4 G4 B2 A2 |[M:4/4] A4 [B,G]4 | %5
[M:2/4] [CE]2 [DE]2 |[M:6/4] z4 [Ec]2- [Ec]2 z2 z2 | d4 A2- A2 .B3 C | G4 c2- c2 z2 z2 | %9
[M:5/4] d4 [Ec]6 |[M:2/4] B3 B |[M:6/4] A4 G2- G2 d3 G | .e6 z6 | G4 c2- c2 c2 B2 |[M:4/4] [Ec]8 |] %15
V:2
 z4 z4 [C,G,C]2 [C,G,C]2 | [C,G,C]4 [C,G,C]4 [B,,G,]2 [B,,G,]2 | A,4 z4 z4 | %3
 [_E,A,C]4 [=E,G,C]4 [D,G,D]2 [D,^F,C]2 |[M:4/4] [D,^F,C]4 [G,,G,]4 |[M:2/4] [C,G,]2 [B,,^G,]2 | %6
[M:6/4] z4 A,2- A,2 z2 z2 | D6- D3/2 z/ [^F,A,_E]2 .[F,B,E]2 | [CE]2 D2 [EG]2 C2 [G,DF]2 [G,B,F]2 | %9
[M:5/4] [G,B,F]4[K:bass] [C,C]6 |[M:2/4] [G,D]3 [G,D] | %11
[M:6/4] [G,CD]4 [G,B,D]2- [G,B,D]2[K:treble] [G,B,F]3 [G,B,F] | [C,C]6- [C,C]2 [F,CG]2 [F,CF]2 | %13
 [G,CE]4[K:treble] [G,CE]2- [G,CE]2 [G,DF]2 [G,DF]2 |[M:4/4][K:bass] [C,C]8 |] %15
V:3
 x12 | x12 | [C,C]4- [C,G,C]4 [C,G,C]2 [D,G,B,]2 | x12 |[M:4/4] x8 |[M:2/4] x4 | %6
[M:6/4] [A,,A,]4 A,,2 z2 [E,A,E]2 [E,^G,E]2 | .[F,A,]12 | G,4 G,2- G,2 z2 z2 | %9
[M:5/4] x4[K:bass] x6 |[M:2/4] x4 |[M:6/4] x8[K:treble] x4 | x12 | x4[K:treble] x8 | %14
[M:4/4][K:bass] x8 |] %15
V:4
 x12 | x12 | x12 | x12 |[M:4/4] x8 |[M:2/4] x4 |[M:6/4] .[CE]6 C,2 c2 B2 | z6 z4 A2 | %8
 z2 .F4 E2 B2 d2 |[M:5/4] x10 |[M:2/4] x4 |[M:6/4] x12 | E4- [Ec]2- [Ec-]>c B2 A2 | x12 | %14
[M:4/4] x8 |] %15

